src/components/content/Icon/functional/quote.svg

<svg width="100" height="100" viewBox="0 0 100 100" fill="none" xmlns="http://www.w3.org/2000/svg">
<path d="M71.5358 54.8361C70.9098 52.2401 69.2618 50.0461 66.8918 48.6581C66.0956 48.1953 65.2424 47.8383 64.3538 47.5961C63.8218 47.4521 63.2718 47.7661 63.1278 48.3001C62.9838 48.8341 63.2978 49.3821 63.8318 49.5261C64.5458 49.7201 65.2378 50.0101 65.8858 50.3841C67.7798 51.4921 69.0958 53.2401 69.5918 55.3021C70.0718 57.2981 69.7218 59.3601 68.6038 61.1101C66.2398 64.8141 61.1618 65.9801 57.2818 63.7141C55.3878 62.6061 54.0718 60.8601 53.5758 58.7961C53.0978 56.8081 53.4438 54.7521 54.5518 53.0081L67.3418 34.9261C67.4946 34.7095 67.5553 34.4412 67.5107 34.1799C67.4661 33.9187 67.3198 33.6857 67.1038 33.5321C66.9967 33.4561 66.8756 33.402 66.7476 33.3728C66.6195 33.3437 66.487 33.3401 66.3575 33.3622C66.228 33.3843 66.1042 33.4317 65.9931 33.5017C65.8819 33.5717 65.7857 33.6629 65.7098 33.7701L52.9058 51.8721C52.8958 51.8841 52.8878 51.8981 52.8798 51.9121C51.4658 54.1241 51.0238 56.7361 51.6338 59.2641C52.2598 61.8601 53.9078 64.0541 56.2758 65.4401C57.9278 66.4061 59.7558 66.8641 61.5638 66.8641C65.0058 66.8641 68.3698 65.1981 70.2938 62.1861C71.7078 59.9741 72.1498 57.3641 71.5398 54.8341L71.5358 54.8361ZM43.1058 48.6581C42.3096 48.1953 41.4564 47.8383 40.5678 47.5961C40.0338 47.4521 39.4858 47.7661 39.3418 48.3001C39.1978 48.8341 39.5118 49.3821 40.0458 49.5261C40.7598 49.7201 41.4518 50.0101 42.0998 50.3841C43.9938 51.4921 45.3098 53.2381 45.8058 55.3021C46.2858 57.2981 45.9358 59.3601 44.8178 61.1101C42.4558 64.8121 37.3758 65.9801 33.4958 63.7141C31.6018 62.6061 30.2858 60.8601 29.7898 58.7961C29.3118 56.8081 29.6578 54.7521 30.7658 53.0081L43.5558 34.9261C43.7086 34.7095 43.7693 34.4412 43.7247 34.1799C43.6801 33.9187 43.5338 33.6857 43.3178 33.5321C43.2107 33.4561 43.0896 33.402 42.9616 33.3728C42.8335 33.3437 42.701 33.3401 42.5715 33.3622C42.442 33.3843 42.3182 33.4317 42.2071 33.5017C42.0959 33.5717 41.9997 33.6629 41.9238 33.7701L29.1198 51.8721C29.1098 51.8841 29.1018 51.8981 29.0938 51.9121C27.6798 54.1241 27.2378 56.7361 27.8478 59.2641C28.4738 61.8601 30.1218 64.0541 32.4898 65.4401C34.1418 66.4041 35.9698 66.8641 37.7778 66.8641C41.2198 66.8641 44.5858 65.1981 46.5078 62.1861C47.9218 59.9741 48.3638 57.3621 47.7538 54.8341C47.1278 52.2381 45.4798 50.0441 43.1098 48.6561L43.1058 48.6581Z" fill="#0B301A"/>
</svg>

<svg xmlns="http://www.w3.org/2000/svg" width="100" height="100" fill="none" viewBox="0 0 100 100"><path fill="#0b301a" d="M71.536 54.836c-.626-2.596-2.274-4.79-4.644-6.178-.796-.463-1.65-.82-2.538-1.062a1 1 0 1 0-.522 1.93 8.7 8.7 0 0 1 2.054.858c1.894 1.108 3.21 2.856 3.706 4.918a7.46 7.46 0 0 1-.988 5.808c-2.364 3.704-7.442 4.87-11.322 2.604-1.894-1.108-3.21-2.854-3.706-4.918a7.46 7.46 0 0 1 .976-5.788l12.79-18.082a1.002 1.002 0 0 0-.984-1.564 1 1 0 0 0-.648.408L52.906 51.872a.3.3 0 0 0-.026.04c-1.414 2.212-1.856 4.824-1.246 7.352.626 2.596 2.274 4.79 4.642 6.176a10.45 10.45 0 0 0 5.288 1.424c3.442 0 6.806-1.666 8.73-4.678 1.414-2.212 1.856-4.822 1.246-7.352zm-28.43-6.178c-.796-.463-1.65-.82-2.538-1.062a.998.998 0 1 0-.522 1.93 8.7 8.7 0 0 1 2.054.858c1.894 1.108 3.21 2.854 3.706 4.918a7.46 7.46 0 0 1-.988 5.808c-2.362 3.702-7.442 4.87-11.322 2.604-1.894-1.108-3.21-2.854-3.706-4.918a7.46 7.46 0 0 1 .976-5.788l12.79-18.082a1.002 1.002 0 0 0-.984-1.564 1 1 0 0 0-.648.408L29.12 51.872q-.015.019-.026.04c-1.414 2.212-1.856 4.824-1.246 7.352.626 2.596 2.274 4.79 4.642 6.176a10.47 10.47 0 0 0 5.288 1.424c3.442 0 6.808-1.666 8.73-4.678 1.414-2.212 1.856-4.824 1.246-7.352-.626-2.596-2.274-4.79-4.644-6.178z"/></svg>
